X:1
T: Greig's Pipe
C:
R:Reel
Q: 232
K:A
M:4/4
L:1/8
|:f|eA cA eA Af|ed cA BF Ff|eA cA ed c2|B1/2B1/2B c1/2B1/2A BF Ff|
eA cA eA Af|ed cA BF Ff|eA ce ae cA|B1/2B1/2B c1/2B1/2A BF F:|
|:d|cA cB cA Ad|cA cA BF Fd|cA cA EA cA|B1/2B1/2B c1/2B1/2A BF F:|
|:A|EA, CA, EA, A,F|EA, CE FB, B,F|EA, CA ED CA,|B,C DE FB, B,:|
|:G|AG AE CA, A,G|AG AE FB, B,G|AG AE CF EC|B,1/2B,1/2B, CE FB, B,:|
